static/img/wxm-devices/wifi-m5-bundle/near-a-window.svg

<svg fill="none" height="525" viewBox="0 0 662 525" width="662" xmlns="http://www.w3.org/2000/svg" xmlns:xlink="http://www.w3.org/1999/xlink"><filter id="a" color-interpolation-filters="sRGB" filterUnits="userSpaceOnUse" height="75.7793" width="76.031" x="167.859" y="314.095"><feFlood flood-opacity="0" result="BackgroundImageFix"/><feBlend in="SourceGraphic" in2="BackgroundImageFix" mode="normal" result="shape"/><feColorMatrix in="SourceAlpha" result="hardAlpha" type="matrix" values="0 0 0 0 0 0 0 0 0 0 0 0 0 0 0 0 0 0 127 0"/><feOffset/><feGaussianBlur stdDeviation="1.4042"/><feComposite in2="hardAlpha" k2="-1" k3="1" operator="arithmetic"/><feColorMatrix type="matrix" values="0 0 0 0 0 0 0 0 0 0 0 0 0 0 0 0 0 0 1 0"/><feBlend in2="shape" mode="normal" result="effect1_innerShadow_35_571"/></filter><path d="m.537598 0h661.292v524.056h-661.292z" fill="#fff"/><path d="m549.435 78.2791h-436.51c-3.531 0-6.393 2.8622-6.393 6.3929v312.863c0 3.53 2.862 6.392 6.393 6.392h436.51c3.531 0 6.393-2.862 6.393-6.392v-312.863c0-3.5307-2.862-6.3929-6.393-6.3929z" fill="#0b3254"/><path d="m545.896 387.602v-292.9969c0-3.5307-2.862-6.3929-6.393-6.3929h-416.644c-3.531 0-6.393 2.8622-6.393 6.3929v292.9969c0 3.53 2.862 6.392 6.393 6.392h416.644c3.531 0 6.393-2.862 6.393-6.392z" fill="#fff"/><path d="m308.39 103.465h-166.612c-3.343 0-6.054 2.862-6.054 6.393v262.489c0 3.53 2.711 6.393 6.054 6.393h166.612c3.344 0 6.054-2.863 6.054-6.393v-262.489c0-3.531-2.71-6.393-6.054-6.393z" fill="#c4c4c5"/><path d="m141.429 109.423h167.312c.034 0 .06.03.06.064v263.231c0 .036-.028.063-.06.063h-167.312c-.034 0-.06-.03-.06-.063v-263.231c0-.036.028-.064.06-.064z" fill="#eaf7ff"/><g fill="#fff"><path d="m283.099 109.423-141.734 131.861v-41.495l97.13-90.366z"/><path d="m308.799 132.935v31.123l-167.434 155.771v-31.122z"/><path d="m308.801 205.553v57.798l-117.621 109.43h-49.751c-.034 0-.06-.027-.06-.063v-11.392l167.432-155.771z"/></g><path d="m520.592 103.465h-166.612c-3.344 0-6.054 2.862-6.054 6.393v262.489c0 3.53 2.71 6.393 6.054 6.393h166.612c3.343 0 6.054-2.863 6.054-6.393v-262.489c0-3.531-2.711-6.393-6.054-6.393z" fill="#c4c4c5"/><path d="m353.63 109.423h167.313c.034 0 .06.03.06.064v263.231c0 .036-.028.063-.06.063h-167.313c-.034 0-.059-.03-.059-.063v-263.231c0-.036.027-.064.059-.064z" fill="#eaf7ff"/><path d="m495.303 109.423-141.732 131.861v-41.495l97.128-90.366z" fill="#fff"/><path d="m521.003 132.935v31.123l-167.432 155.771v-31.122z" fill="#fff"/><path d="m521.003 205.553v57.798l-117.621 109.43h-49.752c-.034 0-.059-.027-.059-.063v-11.392l167.432-155.771z" fill="#fff"/><path d="m572.165 390.665h-481.9623c-6.2882 0-11.3858 5.098-11.3858 11.386v8.284c0 6.288 5.0976 11.386 11.3858 11.386h481.9623c6.288 0 11.386-5.098 11.386-11.386v-8.284c0-6.288-5.098-11.386-11.386-11.386z" fill="#0b3254"/><path d="m576.589 399.681v13.022c0 1.984-1.609 3.593-3.593 3.593h-483.6262c-1.9841 0-3.5926-1.609-3.5926-3.593v-13.022c0-1.984 1.6085-3.593 3.5926-3.593h483.6262c1.984 0 3.593 1.609 3.593 3.593z" fill="#fff" stroke="#0b3254" stroke-width="2.93547"/><g filter="url(#a)"><rect fill="#fff" height="75.7793" rx="5.99124" width="76.031" x="167.859" y="314.095"/></g><rect fill="#000" height="70.3051" rx="3.83814" stroke="#000" stroke-width=".187226" width="71.0604" x="170.216" y="316.706"/><circle cx="186.769" cy="376.28" r="1.26231" stroke="#cf0101"/><circle cx="205.925" cy="376.28" r="1.26231" stroke="#cf0101"/><circle cx="225.037" cy="376.28" r="1.26231" stroke="#cf0101"/><path d="m176.877 325.793h58.2274v44.7471h-58.2274z" fill="#f4f7ff" stroke="#f4f7ff" stroke-width=".187226"/><path d="m262.858 284.424c4.567 3.059 8.272 7.233 10.767 12.128 3.124 6.144 4.455 13.616 3.978 22.195-.016.25.02.501.106.736.087.234.222.448.397.627.174.179.385.319.618.411s.483.135.734.125c.526-.011 1.031-.218 1.414-.58.384-.363.618-.855.658-1.379 1.192-21.135-8.273-32.102-16.424-37.585-5.445-3.641-11.661-5.986-18.173-6.856-.524-.04-1.046.117-1.463.44s-.699.789-.792 1.307c-.044.247-.036.5.023.742.059.243.169.471.322.668s.345.36.566.478c.22.119.463.189.713.208 5.933.845 11.591 3.01 16.556 6.335z" fill="#323640"/><path d="m254.946 319.372c-.031.248-.01.5.062.74.072.239.194.46.357.649s.364.342.59.448c.227.106.473.164.724.17.526.015 1.041-.165 1.443-.507s.664-.82.733-1.342c.242-3.03-.157-6.073-1.172-8.93-1.553-4.267-5.301-9.663-14.315-11.1-.28-.042-.567-.027-.842.046s-.532.202-.756.378c-.382.294-.652.71-.764 1.178-.062.243-.073.497-.031.743.042.247.135.482.273.69.139.208.319.385.53.519s.449.222.697.259c13.821 2.193 12.535 15.488 12.471 16.059z" fill="#323640"/><path d="m267.826 320.129c.527-.007 1.033-.21 1.419-.57.387-.359.626-.849.67-1.373.926-14.231-5.63-21.842-11.292-25.722-3.783-2.571-8.091-4.279-12.62-5.003-.522-.057-1.048.084-1.475.394-.426.311-.722.769-.829 1.284-.052.245-.054.498-.003.743s.152.476.298.679c.146.202.332.372.548.499.216.126.456.206.705.234 3.984.672 7.769 2.197 11.096 4.471 7.063 4.883 10.302 12.446 9.649 22.445-.019.25.015.501.099.736.084.236.216.451.389.632s.382.323.614.418c.231.095.481.14.732.133z" fill="#323640"/><path d="m184.501 358.127v-21.918h3.351l9.581 16h-1.754l9.425-16h3.351l.031 21.918h-3.851l-.032-15.875h.814l-8.015 13.37h-1.816l-8.141-13.37h.939v15.875z" fill="#000"/><path d="m220.105 358.44c-1.545 0-3.058-.219-4.54-.657-1.461-.46-2.693-1.086-3.695-1.879l1.722-3.163c.793.648 1.754 1.169 2.881 1.566 1.148.397 2.338.595 3.569.595 1.441 0 2.568-.303 3.382-.908.835-.605 1.253-1.42 1.253-2.442 0-.689-.178-1.295-.533-1.816-.334-.522-.939-.919-1.816-1.19-.856-.272-2.035-.407-3.538-.407h-5.292l1.127-11.93h12.87v3.413h-11.367l2.13-1.941-.846 8.923-2.129-1.91h4.415c2.171 0 3.914.293 5.229.877 1.336.564 2.307 1.357 2.912 2.38.626 1.002.939 2.15.939 3.444 0 1.273-.313 2.442-.939 3.507s-1.586 1.92-2.881 2.568c-1.273.647-2.891.97-4.853.97z" fill="#000"/><path d="m572.165 57h-481.9623c-6.2882 0-11.3858 5.0976-11.3858 11.3858v8.2842c0 6.2882 5.0976 11.3858 11.3858 11.3858h481.9623c6.288 0 11.386-5.0976 11.386-11.3858v-8.2842c0-6.2882-5.098-11.3858-11.386-11.3858z" fill="#0b3254"/><path d="m576.589 66.0159v13.0219c0 1.9842-1.609 3.5926-3.593 3.5926h-483.6262c-1.9841 0-3.5926-1.6084-3.5926-3.5926v-13.0219c0-1.9842 1.6085-3.5927 3.5926-3.5927h483.6262c1.984 0 3.593 1.6085 3.593 3.5927z" fill="#fff" stroke="#0b3254" stroke-width="2.93547"/><path d="m331 87v304" stroke="#0b3254" stroke-width="8"/><rect fill="#0b3254" height="15" rx="7.5" width="66" x="322" y="234"/></svg>

<svg width="662" height="525" viewBox="0 0 662 525" fill="none" xmlns="http://www.w3.org/2000/svg">
<rect width="661.292" height="524.056" transform="translate(0.537598)" fill="white"/>
<path d="M549.435 78.2791H112.925C109.394 78.2791 106.532 81.1413 106.532 84.672V397.535C106.532 401.065 109.394 403.927 112.925 403.927H549.435C552.966 403.927 555.828 401.065 555.828 397.535V84.672C555.828 81.1413 552.966 78.2791 549.435 78.2791Z" fill="#0B3254"/>
<path d="M545.896 387.602V94.6051C545.896 91.0744 543.034 88.2122 539.503 88.2122L122.859 88.2122C119.328 88.2122 116.466 91.0744 116.466 94.6051V387.602C116.466 391.132 119.328 393.994 122.859 393.994H539.503C543.034 393.994 545.896 391.132 545.896 387.602Z" fill="white"/>
<path d="M308.39 103.465H141.778C138.435 103.465 135.724 106.327 135.724 109.858V372.347C135.724 375.877 138.435 378.74 141.778 378.74H308.39C311.734 378.74 314.444 375.877 314.444 372.347V109.858C314.444 106.327 311.734 103.465 308.39 103.465Z" fill="#C4C4C5"/>
<path d="M141.429 109.423H308.741C308.775 109.423 308.801 109.453 308.801 109.487V372.718C308.801 372.754 308.773 372.781 308.741 372.781H141.429C141.395 372.781 141.369 372.751 141.369 372.718V109.487C141.369 109.451 141.397 109.423 141.429 109.423V109.423Z" fill="#EAF7FF"/>
<path d="M283.099 109.423L141.365 241.284V199.789L238.495 109.423H283.099Z" fill="white"/>
<path d="M308.799 132.935V164.058L141.365 319.829V288.707L308.799 132.935Z" fill="white"/>
<path d="M308.801 205.553V263.351L191.18 372.781H141.429C141.395 372.781 141.369 372.754 141.369 372.718V361.326L308.801 205.555V205.553Z" fill="white"/>
<path d="M520.592 103.465H353.98C350.636 103.465 347.926 106.327 347.926 109.858V372.347C347.926 375.877 350.636 378.74 353.98 378.74H520.592C523.935 378.74 526.646 375.877 526.646 372.347V109.858C526.646 106.327 523.935 103.465 520.592 103.465Z" fill="#C4C4C5"/>
<path d="M353.63 109.423H520.943C520.977 109.423 521.003 109.453 521.003 109.487V372.718C521.003 372.754 520.975 372.781 520.943 372.781H353.63C353.596 372.781 353.571 372.751 353.571 372.718V109.487C353.571 109.451 353.598 109.423 353.63 109.423V109.423Z" fill="#EAF7FF"/>
<path d="M495.303 109.423L353.571 241.284V199.789L450.699 109.423H495.303Z" fill="white"/>
<path d="M521.003 132.935V164.058L353.571 319.829V288.707L521.003 132.935Z" fill="white"/>
<path d="M521.003 205.553V263.351L403.382 372.781H353.63C353.596 372.781 353.571 372.754 353.571 372.718V361.326L521.003 205.555V205.553Z" fill="white"/>
<path d="M572.165 390.665H90.2027C83.9145 390.665 78.8169 395.763 78.8169 402.051V410.335C78.8169 416.623 83.9145 421.721 90.2027 421.721H572.165C578.453 421.721 583.551 416.623 583.551 410.335V402.051C583.551 395.763 578.453 390.665 572.165 390.665Z" fill="#0B3254"/>
<path d="M576.589 399.681V412.703C576.589 414.687 574.98 416.296 572.996 416.296H89.3698C87.3857 416.296 85.7772 414.687 85.7772 412.703V399.681C85.7772 397.697 87.3857 396.088 89.3698 396.088L572.996 396.088C574.98 396.088 576.589 397.697 576.589 399.681Z" fill="white" stroke="#0B3254" stroke-width="2.93547"/>
<g filter="url(#filter0_i_35_571)">
<rect x="167.859" y="314.095" width="76.031" height="75.7793" rx="5.99124" fill="white"/>
</g>
<rect x="170.216" y="316.706" width="71.0604" height="70.3051" rx="3.83814" fill="black" stroke="black" stroke-width="0.187226"/>
<circle cx="186.769" cy="376.28" r="1.26231" stroke="#CF0101"/>
<circle cx="205.925" cy="376.28" r="1.26231" stroke="#CF0101"/>
<circle cx="225.037" cy="376.28" r="1.26231" stroke="#CF0101"/>
<rect x="176.877" y="325.793" width="58.2274" height="44.7471" fill="#F4F7FF" stroke="#F4F7FF" stroke-width="0.187226"/>
<path d="M262.858 284.424C267.425 287.483 271.13 291.657 273.625 296.552C276.749 302.696 278.08 310.168 277.603 318.747C277.587 318.997 277.623 319.248 277.709 319.483C277.796 319.717 277.931 319.931 278.106 320.11C278.28 320.289 278.491 320.429 278.724 320.521C278.957 320.613 279.207 320.656 279.458 320.646C279.984 320.635 280.489 320.428 280.872 320.066C281.256 319.703 281.49 319.211 281.53 318.687C282.722 297.552 273.257 286.585 265.106 281.102C259.661 277.461 253.445 275.116 246.933 274.246C246.409 274.206 245.887 274.363 245.47 274.686C245.053 275.009 244.771 275.475 244.678 275.993C244.634 276.24 244.642 276.493 244.701 276.735C244.76 276.978 244.87 277.206 245.023 277.403C245.176 277.6 245.368 277.763 245.589 277.881C245.809 278 246.052 278.07 246.302 278.089C252.235 278.934 257.893 281.099 262.858 284.424V284.424Z" fill="#323640"/>
<path d="M254.946 319.372C254.915 319.62 254.936 319.872 255.008 320.112C255.08 320.351 255.202 320.572 255.365 320.761C255.528 320.95 255.729 321.103 255.955 321.209C256.182 321.315 256.428 321.373 256.679 321.379C257.205 321.394 257.72 321.214 258.122 320.872C258.524 320.53 258.786 320.052 258.855 319.53C259.097 316.5 258.698 313.457 257.683 310.6C256.13 306.333 252.382 300.937 243.368 299.5C243.088 299.458 242.801 299.473 242.526 299.546C242.251 299.619 241.994 299.748 241.77 299.924C241.388 300.218 241.118 300.634 241.006 301.102C240.944 301.345 240.933 301.599 240.975 301.845C241.017 302.092 241.11 302.327 241.248 302.535C241.387 302.743 241.567 302.92 241.778 303.054C241.989 303.188 242.227 303.276 242.475 303.313C256.296 305.506 255.01 318.801 254.946 319.372Z" fill="#323640"/>
<path d="M267.826 320.129C268.353 320.122 268.859 319.919 269.245 319.559C269.632 319.2 269.871 318.71 269.915 318.186C270.841 303.955 264.285 296.344 258.623 292.464C254.84 289.893 250.532 288.185 246.003 287.461C245.481 287.404 244.955 287.545 244.528 287.855C244.102 288.166 243.806 288.624 243.699 289.139C243.647 289.384 243.645 289.637 243.696 289.882C243.747 290.127 243.848 290.358 243.994 290.561C244.14 290.763 244.326 290.933 244.542 291.06C244.758 291.186 244.998 291.266 245.247 291.294C249.231 291.966 253.016 293.491 256.343 295.765C263.406 300.648 266.645 308.211 265.992 318.21C265.973 318.46 266.007 318.711 266.091 318.946C266.175 319.182 266.307 319.397 266.48 319.578C266.653 319.759 266.862 319.901 267.094 319.996C267.325 320.091 267.575 320.136 267.826 320.129V320.129Z" fill="#323640"/>
<path d="M184.501 358.127V336.209H187.852L197.433 352.209H195.679L205.104 336.209H208.455L208.486 358.127H204.635L204.603 342.252H205.417L197.402 355.622H195.586L187.445 342.252H188.384V358.127H184.501Z" fill="black"/>
<path d="M220.105 358.44C218.56 358.44 217.047 358.221 215.565 357.783C214.104 357.323 212.872 356.697 211.87 355.904L213.592 352.741C214.385 353.389 215.346 353.91 216.473 354.307C217.621 354.704 218.811 354.902 220.042 354.902C221.483 354.902 222.61 354.599 223.424 353.994C224.259 353.389 224.677 352.574 224.677 351.552C224.677 350.863 224.499 350.257 224.144 349.736C223.81 349.214 223.205 348.817 222.328 348.546C221.472 348.274 220.293 348.139 218.79 348.139H213.498L214.625 336.209H227.495V339.622H216.128L218.258 337.681L217.412 346.604L215.283 344.694H219.698C221.869 344.694 223.612 344.987 224.927 345.571C226.263 346.135 227.234 346.928 227.839 347.951C228.465 348.953 228.778 350.101 228.778 351.395C228.778 352.668 228.465 353.837 227.839 354.902C227.213 355.967 226.253 356.822 224.958 357.47C223.685 358.117 222.067 358.44 220.105 358.44Z" fill="black"/>
<path d="M572.165 57H90.2027C83.9145 57 78.8169 62.0976 78.8169 68.3858V76.67C78.8169 82.9582 83.9145 88.0558 90.2027 88.0558H572.165C578.453 88.0558 583.551 82.9582 583.551 76.67V68.3858C583.551 62.0976 578.453 57 572.165 57Z" fill="#0B3254"/>
<path d="M576.589 66.0159V79.0378C576.589 81.022 574.98 82.6304 572.996 82.6304L89.3698 82.6304C87.3857 82.6304 85.7772 81.022 85.7772 79.0378V66.0159C85.7772 64.0317 87.3857 62.4232 89.3698 62.4232L572.996 62.4232C574.98 62.4232 576.589 64.0317 576.589 66.0159Z" fill="white" stroke="#0B3254" stroke-width="2.93547"/>
<line x1="331" y1="87" x2="331" y2="391" stroke="#0B3254" stroke-width="8"/>
<rect x="322" y="234" width="66" height="15" rx="7.5" fill="#0B3254"/>
<defs>
<filter id="filter0_i_35_571" x="167.859" y="314.095" width="76.031" height="75.7793" filterUnits="userSpaceOnUse" color-interpolation-filters="sRGB">
<feFlood flood-opacity="0" result="BackgroundImageFix"/>
<feBlend mode="normal" in="SourceGraphic" in2="BackgroundImageFix" result="shape"/>
<feColorMatrix in="SourceAlpha" type="matrix" values="0 0 0 0 0 0 0 0 0 0 0 0 0 0 0 0 0 0 127 0" result="hardAlpha"/>
<feOffset/>
<feGaussianBlur stdDeviation="1.4042"/>
<feComposite in2="hardAlpha" operator="arithmetic" k2="-1" k3="1"/>
<feColorMatrix type="matrix" values="0 0 0 0 0 0 0 0 0 0 0 0 0 0 0 0 0 0 1 0"/>
<feBlend mode="normal" in2="shape" result="effect1_innerShadow_35_571"/>
</filter>
</defs>
</svg>
